front/assets/images/icone-erreur-blanche.svg

<svg width="24" height="24" viewBox="0 0 24 24" fill="none" xmlns="http://www.w3.org/2000/svg">
<path fill-rule="evenodd" clip-rule="evenodd" d="M23 12L17.5 2.5H6.5L1 12L6.5 21.5H17.5L23 12ZM14.8281 7.75696L12.0001 10.586L9.17208 7.75696L7.75708 9.17196L10.5861 12L7.75708 14.828L9.17208 16.243L12.0001 13.414L14.8281 16.243L16.2431 14.828L13.4141 12L16.2431 9.17196L14.8281 7.75696Z" fill="white"/>
</svg>

<svg xmlns="http://www.w3.org/2000/svg" width="24" height="24" fill="none"><path fill="#fff" fill-rule="evenodd" d="m23 12-5.5-9.5h-11L1 12l5.5 9.5h11zm-8.172-4.243L12 10.586 9.172 7.757 7.757 9.172 10.587 12l-2.83 2.828 1.415 1.415L12 13.414l2.828 2.829 1.415-1.415L13.414 12l2.83-2.828z" clip-rule="evenodd"/></svg>
